fs/textbox_align_bottom_rotate_90_20_regular.svg

<svg viewBox="0 0 20 20" fill="none" xmlns="http://www.w3.org/2000/svg" height="1em" width="1em">
  <path d="M9.5 5C9.77614 5 10 5.22386 10 5.5V14.5C10 14.7761 9.77614 15 9.5 15C9.22386 15 9 14.7761 9 14.5V5.5C9 5.22386 9.22386 5 9.5 5ZM7 5.5C7 5.22386 6.77614 5 6.5 5C6.22386 5 6 5.22386 6 5.5V14.5C6 14.7761 6.22386 15 6.5 15C6.77614 15 7 14.7761 7 14.5V5.5ZM3 5C3 3.89543 3.89543 3 5 3H15C16.1046 3 17 3.89543 17 5V15C17 16.1046 16.1046 17 15 17H5C3.89543 17 3 16.1046 3 15V5ZM5 4C4.44772 4 4 4.44772 4 5V15C4 15.5523 4.44772 16 5 16H15C15.5523 16 16 15.5523 16 15V5C16 4.44772 15.5523 4 15 4H5Z" fill="#212121"/>
</svg>

<svg viewBox="0 0 20 20" fill="none" xmlns="http://www.w3.org/2000/svg" height="1em" width="1em">
  <path d="M9.5 5a.5.5 0 0 1 .5.5v9a.5.5 0 0 1-1 0v-9a.5.5 0 0 1 .5-.5ZM7 5.5a.5.5 0 0 0-1 0v9a.5.5 0 0 0 1 0v-9ZM3 5a2 2 0 0 1 2-2h10a2 2 0 0 1 2 2v10a2 2 0 0 1-2 2H5a2 2 0 0 1-2-2V5Zm2-1a1 1 0 0 0-1 1v10a1 1 0 0 0 1 1h10a1 1 0 0 0 1-1V5a1 1 0 0 0-1-1H5Z" fill="#212121"/>
</svg>
